storage/app/icons/tabler/filled/bath.svg

<!--
version: "2.4"
unicode: "f71d"
-->
<svg
  xmlns="http://www.w3.org/2000/svg"
  width="24"
  height="24"
  viewBox="0 0 24 24"
  fill="currentColor"
>
  <path d="M11 2a1 1 0 0 1 .993 .883l.007 .117v2.25a1 1 0 0 1 -1.993 .117l-.007 -.117v-1.25h-2a1 1 0 0 0 -.993 .883l-.007 .117v6h13a2 2 0 0 1 1.995 1.85l.005 .15v3c0 1.475 -.638 2.8 -1.654 3.715l.486 .73a1 1 0 0 1 -1.594 1.203l-.07 -.093l-.55 -.823a4.98 4.98 0 0 1 -1.337 .26l-.281 .008h-10a4.994 4.994 0 0 1 -1.619 -.268l-.549 .823a1 1 0 0 1 -1.723 -1.009l.059 -.1l.486 -.73a4.987 4.987 0 0 1 -1.647 -3.457l-.007 -.259v-3a2 2 0 0 1 1.85 -1.995l.15 -.005h1v-6a3 3 0 0 1 2.824 -2.995l.176 -.005h3z" />
</svg>

<svg xmlns="http://www.w3.org/2000/svg" width="24" height="24" fill="currentColor" viewBox="0 0 24 24"><path d="M11 2a1 1 0 0 1 .993.883L12 3v2.25a1 1 0 0 1-1.993.117L10 5.25V4H8a1 1 0 0 0-.993.883L7 5v6h13a2 2 0 0 1 1.995 1.85L22 13v3c0 1.475-.638 2.8-1.654 3.715l.486.73a1 1 0 0 1-1.594 1.203l-.07-.093-.55-.823a5 5 0 0 1-1.337.26L17 21H7a5 5 0 0 1-1.619-.268l-.549.823a1 1 0 0 1-1.723-1.009l.059-.1.486-.73a5 5 0 0 1-1.647-3.457L2 16v-3a2 2 0 0 1 1.85-1.995L4 11h1V5a3 3 0 0 1 2.824-2.995L8 2z"/></svg>
